**harmony	**harte	**kern	**silbe	**rhyme	**phrase
*M7/4	*M7/4	*ICvox	*	*	*
*	*	*VRlead	*	*	*
*	*	*Hstimme	*	*	*
*b:	*b:	*b:	*	*	*b:
*	*	*M7/4	*	*	*
*	*	*clefC3	*	*	*
1r;	1r	r;	.	.	.
1r;	1r	r;	.	.	.
=1	=1	=1	=1	=1	=1
*>Letter>A	*>Letter>A	*>Letter>A	*>Letter>A	*>Letter>A	*>Letter>A
*>Label>Intro	*>Label>Intro	*>Label>Intro	*>Label>Intro	*>Label>Intro	*>Label>Intro
1..Bm	B:min	1..r	.	.	newline
=2	=2	=2	=2	=2	=2
1..Bm	B:min	1..r	.	.	.
=3	=3	=3	=3	=3	=3
1..Bm	B:min	1..r	.	.	.
=4	=4	=4	=4	=4	=4
1..Bm	B:min	1..r	.	.	.
=5	=5	=5	=5	=5	=5
*>Letter>B	*>Letter>B	*>Letter>B	*>Letter>B	*>Letter>B	*>Letter>B
*>Label>Verse	*>Label>Verse	*>Label>Verse	*>Label>Verse	*>Label>Verse	*>Label>Verse
1..Bm	B:min	8f#	Mo-	.	newline
.	.	8f#	-ney,	a	.
.	.	1r	.	.	.
.	.	8r	.	.	.
.	.	8F#	a	.	.
.	.	8d	get-	.	.
.	.	8d	-a-	.	.
=6	=6	=6	=6	=6	=6
1..Bm	B:min	4A	-way.	B	.
.	.	1r	.	.	.
.	.	8r	.	.	.
.	.	8F#	Go	.	.
.	.	8d	get	.	.
.	.	8d	a	.	.
=7	=7	=7	=7	=7	=7
1..Bm	B:min	4B	good	.	.
.	.	4d	job	.	.
.	.	4B	with	.	.
.	.	4F#	more	.	.
.	.	8A	pay	B	.
.	.	8A	and	.	.
.	.	4B	you're	.	.
.	.	4e	o	.	.
=8	=8	=8	=8	=8	=8
1..Bm	B:min	12d	_	.	.
.	.	6B	_	.	.
.	.	4A	kay.	B	.
.	.	1r	.	.	.
.	.	8r	.	.	.
.	.	[8f#	Mo-	.	.
=9	=9	=9	=9	=9	=9
1..Bm	B:min	16f#]	_	.	newline
.	.	[8.e	-ney,	a	.
.	.	8e]	_	.	.
.	.	16d	_	.	.
.	.	16B	_	.	.
.	.	1r	.	.	.
.	.	8d	it's	.	.
.	.	8d	a	.	.
=10	=10	=10	=10	=10	=10
1..Bm	B:min	4.A	gas.	C	.
.	.	1r	.	.	.
.	.	8r	.	.	.
.	.	4d	Grab	C	.
=11	=11	=11	=11	=11	=11
1..Bm	B:min	4B	that	.	.
.	.	4d	cash	C	.
.	.	4B	with	.	.
.	.	4F#	both	.	.
.	.	4A	hands	.	.
.	.	4B	and	.	.
.	.	[4e	make	.	.
=12	=12	=12	=12	=12	=12
1..Bm	B:min	16e]	_	.	.
.	.	16d	_	.	.
.	.	[8A	a	.	.
.	.	4A]	stash.	C	.
.	.	1r	.	.	.
.	.	8r	.	.	.
.	.	8c#	A	.	.
=13	=13	=13	=13	=13	=13
*M4/4	*M4/4	*M4/4	*	*	*M4/4
1F#m	F#:min	4f#	New	.	newline
.	.	4f#	car,	D	.
.	.	8f#	ca-	.	.
.	.	8c#	-vi-	.	.
.	.	4F#	-ar,	D	.
=14	=14	=14	=14	=14	=14
1F#m	F#:min	4A	four-	.	.
.	.	4c#	-star	D	.
.	.	4f#	day-	.	.
.	.	4f	-dream,	A	.
=15	=15	=15	=15	=15	=15
*M6/4	*M6/4	*M6/4	*	*	*M6/4
1.Em	E:min	8e	think	.	.
.	.	8B	I'll	.	.
.	.	4E	buy	.	.
.	.	4G	me	A	.
.	.	4A	a	.	.
.	.	4B	foot-	.	.
.	.	4e	-ball	.	.
=16	=16	=16	=16	=16	=16
*M7/4	*M7/4	*M7/4	*	*	*M7/4
1..Bm	B:min	16e	_	.	.
.	.	16d	_	.	.
.	.	[8B	_	.	.
.	.	16B]	_	.	.
.	.	8.A	team.	A	.
.	.	1r	.	.	.
.	.	4r	.	.	.
=17	=17	=17	=17	=17	=17
1..Bm	B:min	1..r	.	.	.
=18	=18	=18	=18	=18	=18
*>Letter>B	*>Letter>B	*>Letter>B	*>Letter>B	*>Letter>B	*>Letter>B
*>Label>Verse	*>Label>Verse	*>Label>Verse	*>Label>Verse	*>Label>Verse	*>Label>Verse
1..Bm	B:min	8f#	Mo-	.	newline
.	.	8f#	-ney,	A	.
.	.	1r	.	.	.
.	.	8r	.	.	.
.	.	8F#	we'll	.	.
.	.	4d	get	.	.
=19	=19	=19	=19	=19	=19
1..Bm	B:min	4A	back.	C	.
.	.	1r	.	.	.
.	.	4r	.	.	.
.	.	4d	I'm	.	.
=20	=20	=20	=20	=20	=20
1..Bm	B:min	4B	all	.	.
.	.	4d	right,	.	.
.	.	4B	Jack,	C	.
.	.	8F#	keep	.	.
.	.	8F#	your	.	.
.	.	4A	hands	.	.
.	.	4B	off	.	.
.	.	4e	my	.	.
=21	=21	=21	=21	=21	=21
1..Bm	B:min	12d	_	.	.
.	.	6B	_	.	.
.	.	4A	stack.	C	.
.	.	1r	.	.	.
.	.	4r	.	.	.
=22	=22	=22	=22	=22	=22
1..Bm	B:min	8f#	Mo-	.	newline
.	.	[8f#	-ney,	A	.
.	.	12f#]	_	.	.
.	.	6f#	_	.	.
.	.	4f#	_	.	.
.	.	2r	.	.	.
.	.	4r	.	.	.
.	.	8d	it's	.	.
.	.	8d	a	.	.
=23	=23	=23	=23	=23	=23
1..Bm	B:min	4A	hit.	E	.
.	.	1r	.	.	.
.	.	8r	.	.	.
.	.	8A	A'	.	.
.	.	4d	don't	.	.
=24	=24	=24	=24	=24	=24
1..Bm	B:min	4B	give	E	.
.	.	4d	me	A	.
.	.	4B	that	.	.
.	.	4F#	do-	.	.
.	.	8A	-goo-	(F	.
.	.	8A	-dy-	a)	.
.	.	4B	-good	F	.
.	.	[4e	bull-	F	.
=25	=25	=25	=25	=25	=25
1..Bm	B:min	16e]	_	.	.
.	.	8d	_	.	.
.	.	[16A	-shit.	E	.
.	.	4A]	_	.	.
.	.	2r	.	.	.
.	.	4A	I'm	.	.
.	.	4B	in	.	.
.	.	4d	the	.	.
=26	=26	=26	=26	=26	=26
*M4/4	*M4/4	*M4/4	*	*	*M4/4
1F#m	F#:min	4f#	hi-	F	newline
.	.	4f#	-fi-	f	.
.	.	8f#	-de-	.	.
.	.	8c#	-li-	.	.
.	.	4F#	-ty	A	.
=27	=27	=27	=27	=27	=27
1F#m	F#:min	4A	first	.	.
.	.	4c#	class	.	.
.	.	8f#	tra-	.	.
.	.	8f#	-vel-	.	.
.	.	4f	-ing	A	.
=28	=28	=28	=28	=28	=28
*M6/4	*M6/4	*M6/4	*	*	*M6/4
1.Em	E:min	8e	set	G	.
.	.	8B	and	.	.
.	.	4E	I	.	.
.	.	4G	think	A	.
.	.	4A	I	.	.
.	.	8B	need	A	.
.	.	8B	a	.	.
.	.	[4e	Lear	A	.
=29	=29	=29	=29	=29	=29
*M7/4	*M7/4	*M7/4	*	*	*M7/4
1..Bm	B:min	16e]	_	.	.
.	.	16d	_	.	.
.	.	[8B	_	.	.
.	.	16B]	_	.	.
.	.	8.A	jet.	G	.
.	.	1r	.	.	.
.	.	4r	.	.	.
=30	=30	=30	=30	=30	=30
1..Bm	B:min	1..r	.	.	.
=31	=31	=31	=31	=31	=31
*>Letter>C	*>Letter>C	*>Letter>C	*>Letter>C	*>Letter>C	*>Letter>C
*>Label>Solo	*>Label>Solo	*>Label>Solo	*>Label>Solo	*>Label>Solo	*>Label>Solo
1..Bm	B:min	1..r	.	.	newline
=32	=32	=32	=32	=32	=32
1..Bm	B:min	1..r	.	.	.
=33	=33	=33	=33	=33	=33
1..Bm	B:min	1..r	.	.	.
=34	=34	=34	=34	=34	=34
*M4/4	*M4/4	*M4/4	*	*	*M4/4
1Bm	B:min	1r	.	.	.
=35	=35	=35	=35	=35	=35
1Bm	B:min	1r	.	.	newline
=36	=36	=36	=36	=36	=36
*M7/4	*M7/4	*M7/4	*	*	*M7/4
1..Bm	B:min	1..r	.	.	.
=37	=37	=37	=37	=37	=37
1..Bm	B:min	1..r	.	.	.
=38	=38	=38	=38	=38	=38
1..Bm	B:min	1..r	.	.	.
=39	=39	=39	=39	=39	=39
1..Bm	B:min	1..r	.	.	.
=40	=40	=40	=40	=40	=40
*M4/4	*M4/4	*M4/4	*	*	*M4/4
1F#m	F#:min	1r	.	.	newline
=41	=41	=41	=41	=41	=41
1F#m	F#:min	1r	.	.	.
=42	=42	=42	=42	=42	=42
*M6/4	*M6/4	*M6/4	*	*	*M6/4
1.Em	E:min	1.r	.	.	.
=43	=43	=43	=43	=43	=43
*M4/4	*M4/4	*M4/4	*	*	*M4/4
1Bm	B:min	1r	.	.	.
=44	=44	=44	=44	=44	=44
1Bm	B:min	1r	.	.	.
=45	=45	=45	=45	=45	=45
*>Letter>C	*>Letter>C	*>Letter>C	*>Letter>C	*>Letter>C	*>Letter>C
*>Label>Solo	*>Label>Solo	*>Label>Solo	*>Label>Solo	*>Label>Solo	*>Label>Solo
1Bm	B:min	1r	.	.	newline
=46	=46	=46	=46	=46	=46
1Bm	B:min	1r	.	.	.
=47	=47	=47	=47	=47	=47
1Bm	B:min	1r	.	.	.
=48	=48	=48	=48	=48	=48
1Bm	B:min	1r	.	.	.
=49	=49	=49	=49	=49	=49
1Bm	B:min	1r	.	.	newline
=50	=50	=50	=50	=50	=50
1Bm	B:min	1r	.	.	.
=51	=51	=51	=51	=51	=51
1Bm	B:min	1r	.	.	.
=52	=52	=52	=52	=52	=52
1Bm	B:min	1r	.	.	.
=53	=53	=53	=53	=53	=53
1Em	E:min	1r	.	.	newline
=54	=54	=54	=54	=54	=54
1Em	E:min	1r	.	.	.
=55	=55	=55	=55	=55	=55
1Em	E:min	1r	.	.	.
=56	=56	=56	=56	=56	=56
1Em	E:min	1r	.	.	.
=57	=57	=57	=57	=57	=57
1Bm	B:min	1r	.	.	newline
=58	=58	=58	=58	=58	=58
1Bm	B:min	1r	.	.	.
=59	=59	=59	=59	=59	=59
1Bm	B:min	1r	.	.	.
=60	=60	=60	=60	=60	=60
1Bm	B:min	1r	.	.	.
=61	=61	=61	=61	=61	=61
1F#m	F#:min	1r	.	.	newline
=62	=62	=62	=62	=62	=62
1F#m	F#:min	1r	.	.	.
=63	=63	=63	=63	=63	=63
4Bm	B:1	1r	.	.	.
4AM	A:1	.	.	.	.
4GM	G:1	.	.	.	.
4F#m	F#:1	.	.	.	.
=64	=64	=64	=64	=64	=64
4Em	E:1	1r	.	.	.
4DM	D:1	.	.	.	.
4C#m	C#:1	.	.	.	.
4CM	C:1	.	.	.	.
=65	=65	=65	=65	=65	=65
*M7/4	*M7/4	*M7/4	*	*	*M7/4
1..Bm	B:min	1..r	.	.	newline
=66	=66	=66	=66	=66	=66
1..Bm	B:min	1..r	.	.	.
=67	=67	=67	=67	=67	=67
*>Letter>B	*>Letter>B	*>Letter>B	*>Letter>B	*>Letter>B	*>Letter>B
*>Label>Verse	*>Label>Verse	*>Label>Verse	*>Label>Verse	*>Label>Verse	*>Label>Verse
1..Bm	B:min	8f#	Mo-	.	newline
.	.	[8f#	-ney,	a	.
.	.	12f#]	_	.	.
.	.	6f#	_	.	.
.	.	4r	.	.	.
.	.	2r	.	.	.
.	.	4r	.	.	.
.	.	8e	it's	.	.
.	.	8d	a	.	.
=68	=68	=68	=68	=68	=68
1..Bm	B:min	4A	crime.	F	.
.	.	1r	.	.	.
.	.	4r	.	.	.
.	.	4d	Share	H	.
=69	=69	=69	=69	=69	=69
1..Bm	B:min	4B	it,	.	.
.	.	4d	fair-	(H	.
.	.	8B	-ly	a)	.
.	.	8F#	but	.	.
.	.	4F#	don't	.	.
.	.	8A	take	.	.
.	.	8A	a	.	.
.	.	8B	slice	F	.
.	.	8B	of	.	.
.	.	4e	my	F	.
=70	=70	=70	=70	=70	=70
1..Bm	B:min	12d	_	.	.
.	.	6B	_	.	.
.	.	4A	pie.	F	.
.	.	1r	.	.	.
.	.	4r	.	.	.
=71	=71	=71	=71	=71	=71
1..Bm	B:min	8f#	Mo-	.	newline
.	.	[8f#	-ney,	a	.
.	.	12f#]	_	.	.
.	.	6f#	_	.	.
.	.	4r	.	.	.
.	.	2r	.	.	.
.	.	8r	.	.	.
.	.	[8e	so	.	.
.	.	8e]	they	B	.
.	.	8d	_	.	.
=72	=72	=72	=72	=72	=72
1..Bm	B:min	4.A	say,	B	.
.	.	8r	.	.	.
.	.	1r	.	.	.
.	.	4d	is	.	.
=73	=73	=73	=73	=73	=73
1..Bm	B:min	4B	the	.	.
.	.	4d	root	.	.
.	.	4B	of	.	.
.	.	4F#	all	.	.
.	.	4A	e-	.	.
.	.	4B	-vil	.	.
.	.	4e	to	.	.
=74	=74	=74	=74	=74	=74
1..Bm	B:min	12d	_	.	.
.	.	6B	_	.	.
.	.	4A	day.	B	.
.	.	4r	.	.	.
.	.	1r	.	.	.
=75	=75	=75	=75	=75	=75
*M4/4	*M4/4	*M4/4	*	*	*M4/4
1F#m	F#:min	8f#	But	.	newline
.	.	8e	if	.	.
.	.	4f#	you	.	.
.	.	8f#	ask	.	.
.	.	8c#	for	.	.
.	.	4F#	a	.	.
=76	=76	=76	=76	=76	=76
1F#m	F#:min	4A	raise	F	.
.	.	4c#	it's	.	.
.	.	4f#	no	.	.
.	.	4f	sur-	.	.
=77	=77	=77	=77	=77	=77
*M6/4	*M6/4	*M6/4	*	*	*M6/4
1.Em	E:min	8e	-prise	F	.
.	.	8B	that	.	.
.	.	4E	they're	.	.
.	.	4G	gi-	.	.
.	.	8A	-ving	.	.
.	.	8r	.	.	.
.	.	4B	none	.	.
.	.	8e	a-	.	.
.	.	[8A	-way	B	.
=78	=78	=78	=78	=78	=78
*>Letter>D	*>Letter>D	*>Letter>D	*>Letter>D	*>Letter>D	*>Letter>D
*>Label>Outro	*>Label>Outro	*>Label>Outro	*>Label>Outro	*>Label>Outro	*>Label>Outro
*M4/4	*M4/4	*	*	*	*M4/4
1Bm	B:min	4A]	.	.	newline
.	.	4r	.	.	.
.	.	4r	.	.	.
.	.	8d	a-	.	.
.	.	[8A	-way	B	.
=79	=79	=79	=79	=79	=79
1Bm	B:min	4A]	.	.	.
.	.	4r	.	.	.
.	.	4r	.	.	.
.	.	8d	a-	.	.
.	.	[8B	-way	B	.
=80	=80	=80	=80	=80	=80
1Bm	B:min	16B]	_	.	.
.	.	16d	_	.	.
.	.	[8B	_	.	.
.	.	4B]	.	.	.
.	.	4r	.	.	.
.	.	8F#	a-	.	.
.	.	[8e	-way	B	.
=81	=81	=81	=81	=81	=81
1Bm	B:min	8e]	_	.	.
.	.	8d	_	.	.
.	.	8B	_	.	.
.	.	8A	.	.	.
.	.	4r	.	.	.
.	.	8d	a-	.	.
.	.	[8B	-way	B	.
=82	=82	=82	=82	=82	=82
1Bm	B:min	16B]	_	.	newline
.	.	16d	_	.	.
.	.	16B	_	.	.
.	.	16A	.	.	.
.	.	4r	.	.	.
.	.	4r	.	.	.
.	.	8d	a-	.	.
.	.	[8B	-way	B	.
=83	=83	=83	=83	=83	=83
1Bm	B:min	4B]	.	.	.
.	.	4r	.	.	.
.	.	4r	.	.	.
.	.	8F#	a-	.	.
.	.	[8e	-way	B	.
=84	=84	=84	=84	=84	=84
1Bm	B:min	8e]	_	.	.
.	.	8d	_	.	.
.	.	8B	_	.	.
.	.	8A	.	.	.
.	.	4r	.	.	.
.	.	8r	.	.	.
.	.	8A	a-	.	.
=85	=85	=85	=85	=85	=85
1Bm	B:min	4A	-way	B	.
.	.	4B	.	.	.
.	.	4r	.	.	.
.	.	8r	.	.	.
.	.	[8a	oo-	.	.
=86	=86	=86	=86	=86	=86
1Bm	B:min	8a]	_	.	.
.	.	8f#	-o-	.	.
.	.	8e	-o-	.	.
.	.	8d	-o-	.	.
.	.	4B	-ooh...	.	.
.	.	4r	.	.	.
=87	=87	=87	=87	=87	=87
1Bm	B:min	1r	.	.	.
=88	=88	=88	=88	=88	=88
1Bm	B:min	1r	.	.	.
1r;	1r	r;	.	.	.
*-	*-	*-	*-	*-	*-
!!!BillboardChartDate: 1973/07/28
!!!BillboardPeak: 13
!!!BillboardWeeksOnChart: 15
!!!COC: Pink Floyd
!!!ENC: Nathaniel Condit-Schultz
!!!EST: Awating manual error checking and editing.
!!!OTL: Money
!!!RDF**chordsym: original McGill chord annotation + (implied pitch class set, with bass pitch in first position)
!!!RDF**harmony: **recip + pitch class of root + harmonic quality
!!!RDF**leadinstrument: original McGill primary instrumentation annotation
!!!RDF**phrase: newline = linebreak in original McGill transcription
!!!RDF**timestamp: McGill audio timestamp in seconds
!!!RDT: 2017/01/12/
!!!SampleActualRank: 13
!!!SampleID#: 0269
!!!SampleTargetRank: 12
!!!MBID: 7fef22bd-76aa-4803-b56b-93a5d6e70662
